X: 10023
T: Diabolo Lyon
R: three-two
M: 3/2
K: Eminor
|:EFGA cBGF EBGE|CDEC ~A,3G AGFG|
EFGA cBGF EBGE|1 CDEG AGED ~E3D:|2 CDEG AGED ~E3F||
|:GFG[AE] FDFA ~G3F|GFEG AGFD ~C3B,|
A,B,CD EA,EG ~F3D|CDEG AGED ~E3F:|
|:gfge fdfa ~g3e|gfge fdfa ~b3e|
c'bac' bgfg eedc|1 cdef gafd ~e3f:|2 cdef gafd edBG||

